X: 100423
T: THE STRANGER HORNPIPE
R: hornpipe
B: K\"ohler's Violin Repository, v.3, 1885 p.272 #1
F: http://www.archive.org/details/klersviolinrepos03rugg
Z: 2012 John Chambers <jc:trillian.mit.edu>
M: C|
L: 1/8
K: D
(vABc) |\
d>cd>f e>^de>g | f>ef>a g2(a>g) | f>af>d e>ge>c | d2d2 d2((3ABc) |
d>cd>f e>^de>g | f>ef>a g2(a>g) | f>af>d e>ge>c | d2d2 d2 :|
|: ((3abc') |\
ud'2ud'2 (.c'3.a) | ub2vb2 (.a3.f) | g2g>e f2f>d | e2e>d c>BA2 |
(d>c)d>f e>^de>g | f>ef>a g2(a>g) | f>af>d e>ge>c | d2d2 d2 :|

%%sep 2 1 500

